!!! OTL: Berkowitz349
!!! Chapter: 1
!!! Section: III
!!! Page: 85
!!! Mode: 
!!! Encoder: DJB
**kern
*staff1
*I"Piano
=1-
*clefG2
*k[b-]
*F:
*M3/4
4.f/
8e/
4d/
=2
4c/
4Bn/
4c/
=3
4b-\
4.d/
8e/
=4
4f/
4r
4f#/
=5
4.g/
8f#/
4g/
=6
4f/
4a/
4bn\
=7
2dd\
4cc\
=8
4b-\
4a/
4g/
=9
4.f/
8e/
4f/
=10
!!linebreak:original
2cc\
4e-/
=11
2d/
4cc\
=12
2b-\
4d-/
=13
4.c/
8Bn/
4c/
=14
4b-\
4d/
4e/
=15
4.g/
8f#/
8a/L
8g/J
=16
4f/
2r
==
*-
